assets/Background.svg

<svg xmlns="http://www.w3.org/2000/svg" id="visual" width="900" height="600" viewBox="0 0 900 600"><g stroke-linejoin="bevel"><path fill="#21325e" stroke="#21325e" d="m480 325 21 36 72-46Z"/><path fill="#233669" stroke="#233669" d="m573 315-42-84-51 94Z"/><path fill="#3547a2" stroke="#3547a2" d="m531 231-122 66 71 28Z"/><path fill="#21325e" stroke="#21325e" d="m480 325-75 100 96-64Z"/><path fill="#5353cf" stroke="#5353cf" d="m501 361 125 43-53-89Z"/><path fill="#3547a2" stroke="#3547a2" d="m573 315 12-118-54 34Z"/><path fill="#283d80" stroke="#283d80" d="M731 336 585 197l-12 118Z"/><path fill="#304497" stroke="#304497" d="m531 231-94-47-28 113Z"/><path fill="#434eb9" stroke="#434eb9" d="m409 297-4 128 75-100Z"/><path fill="#21325e" stroke="#21325e" d="m501 361 125 136v-93ZM476 75l-39 109 94 47Z"/><path fill="#253a75" stroke="#253a75" d="m473 528 153-31-125-136Z"/><path fill="#233669" stroke="#233669" d="m721 415 10-79-105 68Z"/><path fill="#2b418c" stroke="#2b418c" d="m626 404 105-68-158-21Z"/><path fill="#4b50c4" stroke="#4b50c4" d="m312 169 9 146 88-18Z"/><path fill="#21325e" stroke="#21325e" d="m409 297-88 18 84 110Z"/><path fill="#233669" stroke="#233669" d="m313 478 105 24-13-77Z"/><path fill="#3547a2" stroke="#3547a2" d="m405 425 68 103 28-167Z"/><path fill="#233669" stroke="#233669" d="m418 502 55 26-68-103Z"/><path fill="#304497" stroke="#304497" d="m696 470 25-55-95-11Z"/><path fill="#434eb9" stroke="#434eb9" d="m321 315 6 104 78 6Z"/><path fill="#3547a2" stroke="#3547a2" d="m626 497 70-27-70-66Z"/><path fill="#4b50c4" stroke="#4b50c4" d="m731 336-42-170-104 31Z"/><path fill="#3c4bae" stroke="#3c4bae" d="M585 197 476 75l55 156ZM763 434l2-140-34 42Z"/><path fill="#233669" stroke="#233669" d="m731 336 34-42-76-128Z"/><path fill="#5353cf" stroke="#5353cf" d="m689 166-70-78-34 109Z"/><path fill="#3c4bae" stroke="#3c4bae" d="M619 88 476 75l109 122Z"/><path fill="#233669" stroke="#233669" d="m437 184-125-15 97 128Z"/><path fill="#253a75" stroke="#253a75" d="m696 470 67-36-42-19Z"/><path fill="#3c4bae" stroke="#3c4bae" d="m721 415 42 19-32-98Z"/><path fill="#283d80" stroke="#283d80" d="m338 105-26 64 125 15Z"/><path fill="#253a75" stroke="#253a75" d="m213 375 100 103 14-59Z"/><path fill="#253a75" stroke="#253a75" d="m213 375 114 44-6-104Z"/><path fill="#304497" stroke="#304497" d="m327 419-14 59 92-53Z"/><path fill="#21325e" stroke="#21325e" d="M398 600h120l-45-72Z"/><path fill="#3547a2" stroke="#3547a2" d="M476 75 375 92l62 92Z"/><path fill="#283d80" stroke="#283d80" d="m398 600 75-72-55-26Z"/><path fill="#253a75" stroke="#253a75" d="m473 528 110 72 43-103Z"/><path fill="#21325e" stroke="#21325e" d="m626 497 97 103-27-130Z"/><path fill="#253a75" stroke="#253a75" d="m696 470 106 43-39-79Z"/><path fill="#2b418c" stroke="#2b418c" d="M518 600h65l-110-72Z"/><path fill="#3c4bae" stroke="#3c4bae" d="m375 92-37 13 99 79Z"/><path fill="#304497" stroke="#304497" d="M799 125 674 70l15 96Z"/><path fill="#4b50c4" stroke="#4b50c4" d="m689 166-15-96-55 18Z"/><path fill="#2b418c" stroke="#2b418c" d="M619 88 517 0l-41 75Z"/><path fill="#304497" stroke="#304497" d="m765 294 40-73-116-55Z"/><path fill="#4b50c4" stroke="#4b50c4" d="m900 282-95-61-40 73Z"/><path fill="#21325e" stroke="#21325e" d="m313 478 85 122 20-98Z"/><path fill="#3c4bae" stroke="#3c4bae" d="m185 275 28 100 108-60Z"/><path fill="#283d80" stroke="#283d80" d="m313 478-45 122h130Z"/><path fill="#233669" stroke="#233669" d="m230 204 91 111-9-146Z"/><path fill="#434eb9" stroke="#434eb9" d="m162 74 68 130 82-35Z"/><path fill="#21325e" stroke="#21325e" d="M614 0h-97l102 88Z"/><path fill="#304497" stroke="#304497" d="M476 75 375 0v92Z"/><path fill="#434eb9" stroke="#434eb9" d="M375 92V0l-37 105Z"/><path fill="#3547a2" stroke="#3547a2" d="M674 70 614 0l5 88Z"/><path fill="#21325e" stroke="#21325e" d="M711 0h-97l60 70Z"/><path fill="#253a75" stroke="#253a75" d="m723 600 79-87-106-43Z"/><path fill="#3547a2" stroke="#3547a2" d="M900 439V282l-135 12ZM805 221l-6-96-110 41Z"/><path fill="#3c4bae" stroke="#3c4bae" d="M583 600h140l-97-103Z"/><path fill="#283d80" stroke="#283d80" d="m230 204-45 71 136 40Z"/><path fill="#3c4bae" stroke="#3c4bae" d="M517 0H375l101 75Z"/><path fill="#21325e" stroke="#21325e" d="M338 105 162 74l150 95Z"/><path fill="#283d80" stroke="#283d80" d="M763 0h-52l-37 70Z"/><path fill="#304497" stroke="#304497" d="m134 428 49 41 30-94Z"/><path fill="#253a75" stroke="#253a75" d="m213 375-30 94 130 9Z"/><path fill="#2b418c" stroke="#2b418c" d="M900 439 765 294l-2 140Z"/><path fill="#4b50c4" stroke="#4b50c4" d="m805 221 95 1-101-97Z"/><path fill="#3547a2" stroke="#3547a2" d="M225 600h43l45-122Z"/><path fill="#2b418c" stroke="#2b418c" d="M900 282v-60l-95-1Z"/><path fill="#21325e" stroke="#21325e" d="M799 125 763 0l-89 70Z"/><path fill="#2b418c" stroke="#2b418c" d="M900 475v-36l-98 74Z"/><path fill="#21325e" stroke="#21325e" d="m802 513 98-74-137-5Z"/><path fill="#434eb9" stroke="#434eb9" d="M900 0H763l36 125Z"/><path fill="#253a75" stroke="#253a75" d="M900 600V475l-98 38Z"/><path fill="#21325e" stroke="#21325e" d="M375 0h-96l59 105Z"/><path fill="#434eb9" stroke="#434eb9" d="m79 235 36 77 70-37Z"/><path fill="#3547a2" stroke="#3547a2" d="m115 312 19 116 79-53Z"/><path fill="#21325e" stroke="#21325e" d="m183 469 42 131 88-122Z"/><path fill="#3547a2" stroke="#3547a2" d="M723 600h101l-22-87Z"/><path fill="#283d80" stroke="#283d80" d="m121 518 104 82-42-131Z"/><path fill="#253a75" stroke="#253a75" d="m79 235 106 40 45-71Z"/><path fill="#3c4bae" stroke="#3c4bae" d="m185 275-70 37 98 63Z"/><path fill="#5353cf" stroke="#5353cf" d="M900 222V96l-101 29Z"/><path fill="#21325e" stroke="#21325e" d="M279 0 162 74l176 31Z"/><path fill="#283d80" stroke="#283d80" d="m0 417 121 101 13-90Z"/><path fill="#304497" stroke="#304497" d="m134 428-13 90 62-49ZM103 112 79 235l151-31Z"/><path fill="#5353cf" stroke="#5353cf" d="M115 312 0 417l134 11Z"/><path fill="#434eb9" stroke="#434eb9" d="M824 600h76l-98-87Z"/><path fill="#21325e" stroke="#21325e" d="M279 0h-94l-23 74Z"/><path fill="#253a75" stroke="#253a75" d="m162 74-59 38 127 92Z"/><path fill="#2b418c" stroke="#2b418c" d="m94 0 9 112 59-38Z"/><path fill="#4b50c4" stroke="#4b50c4" d="M900 96V0L799 125Z"/><path fill="#2b418c" stroke="#2b418c" d="m0 518 98 82 23-82Z"/><path fill="#304497" stroke="#304497" d="m121 518-23 82h127ZM0 210v96l79-71Z"/><path fill="#4b50c4" stroke="#4b50c4" d="M79 235 0 306l115 6Z"/><path fill="#434eb9" stroke="#434eb9" d="M0 306v111l115-105ZM103 112 0 210l79 25Z"/><path fill="#283d80" stroke="#283d80" d="M0 73v137l103-98Z"/><path fill="#2b418c" stroke="#2b418c" d="M185 0H94l68 74Z"/><path fill="#233669" stroke="#233669" d="M0 417v101h121Z"/><path fill="#283d80" stroke="#283d80" d="M94 0 0 73l103 39Z"/><path fill="#4b50c4" stroke="#4b50c4" d="M0 518v82h98Z"/><path fill="#304497" stroke="#304497" d="M94 0H0v73Z"/></g></svg>

<svg id="visual" viewBox="0 0 900 600" width="900" height="600" xmlns="http://www.w3.org/2000/svg" xmlns:xlink="http://www.w3.org/1999/xlink" version="1.1"><g stroke-width="1" stroke-linejoin="bevel"><path d="M480 325L501 361L573 315Z" fill="#21325e" stroke="#21325e"></path><path d="M573 315L531 231L480 325Z" fill="#233669" stroke="#233669"></path><path d="M531 231L409 297L480 325Z" fill="#3547a2" stroke="#3547a2"></path><path d="M480 325L405 425L501 361Z" fill="#21325e" stroke="#21325e"></path><path d="M501 361L626 404L573 315Z" fill="#5353cf" stroke="#5353cf"></path><path d="M573 315L585 197L531 231Z" fill="#3547a2" stroke="#3547a2"></path><path d="M731 336L585 197L573 315Z" fill="#283d80" stroke="#283d80"></path><path d="M531 231L437 184L409 297Z" fill="#304497" stroke="#304497"></path><path d="M409 297L405 425L480 325Z" fill="#434eb9" stroke="#434eb9"></path><path d="M501 361L626 497L626 404Z" fill="#21325e" stroke="#21325e"></path><path d="M476 75L437 184L531 231Z" fill="#21325e" stroke="#21325e"></path><path d="M473 528L626 497L501 361Z" fill="#253a75" stroke="#253a75"></path><path d="M721 415L731 336L626 404Z" fill="#233669" stroke="#233669"></path><path d="M626 404L731 336L573 315Z" fill="#2b418c" stroke="#2b418c"></path><path d="M312 169L321 315L409 297Z" fill="#4b50c4" stroke="#4b50c4"></path><path d="M409 297L321 315L405 425Z" fill="#21325e" stroke="#21325e"></path><path d="M313 478L418 502L405 425Z" fill="#233669" stroke="#233669"></path><path d="M405 425L473 528L501 361Z" fill="#3547a2" stroke="#3547a2"></path><path d="M418 502L473 528L405 425Z" fill="#233669" stroke="#233669"></path><path d="M696 470L721 415L626 404Z" fill="#304497" stroke="#304497"></path><path d="M321 315L327 419L405 425Z" fill="#434eb9" stroke="#434eb9"></path><path d="M626 497L696 470L626 404Z" fill="#3547a2" stroke="#3547a2"></path><path d="M731 336L689 166L585 197Z" fill="#4b50c4" stroke="#4b50c4"></path><path d="M585 197L476 75L531 231Z" fill="#3c4bae" stroke="#3c4bae"></path><path d="M763 434L765 294L731 336Z" fill="#3c4bae" stroke="#3c4bae"></path><path d="M731 336L765 294L689 166Z" fill="#233669" stroke="#233669"></path><path d="M689 166L619 88L585 197Z" fill="#5353cf" stroke="#5353cf"></path><path d="M619 88L476 75L585 197Z" fill="#3c4bae" stroke="#3c4bae"></path><path d="M437 184L312 169L409 297Z" fill="#233669" stroke="#233669"></path><path d="M696 470L763 434L721 415Z" fill="#253a75" stroke="#253a75"></path><path d="M721 415L763 434L731 336Z" fill="#3c4bae" stroke="#3c4bae"></path><path d="M338 105L312 169L437 184Z" fill="#283d80" stroke="#283d80"></path><path d="M213 375L313 478L327 419Z" fill="#253a75" stroke="#253a75"></path><path d="M213 375L327 419L321 315Z" fill="#253a75" stroke="#253a75"></path><path d="M327 419L313 478L405 425Z" fill="#304497" stroke="#304497"></path><path d="M398 600L518 600L473 528Z" fill="#21325e" stroke="#21325e"></path><path d="M476 75L375 92L437 184Z" fill="#3547a2" stroke="#3547a2"></path><path d="M398 600L473 528L418 502Z" fill="#283d80" stroke="#283d80"></path><path d="M473 528L583 600L626 497Z" fill="#253a75" stroke="#253a75"></path><path d="M626 497L723 600L696 470Z" fill="#21325e" stroke="#21325e"></path><path d="M696 470L802 513L763 434Z" fill="#253a75" stroke="#253a75"></path><path d="M518 600L583 600L473 528Z" fill="#2b418c" stroke="#2b418c"></path><path d="M375 92L338 105L437 184Z" fill="#3c4bae" stroke="#3c4bae"></path><path d="M799 125L674 70L689 166Z" fill="#304497" stroke="#304497"></path><path d="M689 166L674 70L619 88Z" fill="#4b50c4" stroke="#4b50c4"></path><path d="M619 88L517 0L476 75Z" fill="#2b418c" stroke="#2b418c"></path><path d="M765 294L805 221L689 166Z" fill="#304497" stroke="#304497"></path><path d="M900 282L805 221L765 294Z" fill="#4b50c4" stroke="#4b50c4"></path><path d="M313 478L398 600L418 502Z" fill="#21325e" stroke="#21325e"></path><path d="M185 275L213 375L321 315Z" fill="#3c4bae" stroke="#3c4bae"></path><path d="M313 478L268 600L398 600Z" fill="#283d80" stroke="#283d80"></path><path d="M230 204L321 315L312 169Z" fill="#233669" stroke="#233669"></path><path d="M162 74L230 204L312 169Z" fill="#434eb9" stroke="#434eb9"></path><path d="M614 0L517 0L619 88Z" fill="#21325e" stroke="#21325e"></path><path d="M476 75L375 0L375 92Z" fill="#304497" stroke="#304497"></path><path d="M375 92L375 0L338 105Z" fill="#434eb9" stroke="#434eb9"></path><path d="M674 70L614 0L619 88Z" fill="#3547a2" stroke="#3547a2"></path><path d="M711 0L614 0L674 70Z" fill="#21325e" stroke="#21325e"></path><path d="M723 600L802 513L696 470Z" fill="#253a75" stroke="#253a75"></path><path d="M900 439L900 282L765 294Z" fill="#3547a2" stroke="#3547a2"></path><path d="M805 221L799 125L689 166Z" fill="#3547a2" stroke="#3547a2"></path><path d="M583 600L723 600L626 497Z" fill="#3c4bae" stroke="#3c4bae"></path><path d="M230 204L185 275L321 315Z" fill="#283d80" stroke="#283d80"></path><path d="M517 0L375 0L476 75Z" fill="#3c4bae" stroke="#3c4bae"></path><path d="M338 105L162 74L312 169Z" fill="#21325e" stroke="#21325e"></path><path d="M763 0L711 0L674 70Z" fill="#283d80" stroke="#283d80"></path><path d="M134 428L183 469L213 375Z" fill="#304497" stroke="#304497"></path><path d="M213 375L183 469L313 478Z" fill="#253a75" stroke="#253a75"></path><path d="M900 439L765 294L763 434Z" fill="#2b418c" stroke="#2b418c"></path><path d="M805 221L900 222L799 125Z" fill="#4b50c4" stroke="#4b50c4"></path><path d="M225 600L268 600L313 478Z" fill="#3547a2" stroke="#3547a2"></path><path d="M900 282L900 222L805 221Z" fill="#2b418c" stroke="#2b418c"></path><path d="M799 125L763 0L674 70Z" fill="#21325e" stroke="#21325e"></path><path d="M900 475L900 439L802 513Z" fill="#2b418c" stroke="#2b418c"></path><path d="M802 513L900 439L763 434Z" fill="#21325e" stroke="#21325e"></path><path d="M900 0L763 0L799 125Z" fill="#434eb9" stroke="#434eb9"></path><path d="M900 600L900 475L802 513Z" fill="#253a75" stroke="#253a75"></path><path d="M375 0L279 0L338 105Z" fill="#21325e" stroke="#21325e"></path><path d="M79 235L115 312L185 275Z" fill="#434eb9" stroke="#434eb9"></path><path d="M115 312L134 428L213 375Z" fill="#3547a2" stroke="#3547a2"></path><path d="M183 469L225 600L313 478Z" fill="#21325e" stroke="#21325e"></path><path d="M723 600L824 600L802 513Z" fill="#3547a2" stroke="#3547a2"></path><path d="M121 518L225 600L183 469Z" fill="#283d80" stroke="#283d80"></path><path d="M79 235L185 275L230 204Z" fill="#253a75" stroke="#253a75"></path><path d="M185 275L115 312L213 375Z" fill="#3c4bae" stroke="#3c4bae"></path><path d="M900 222L900 96L799 125Z" fill="#5353cf" stroke="#5353cf"></path><path d="M279 0L162 74L338 105Z" fill="#21325e" stroke="#21325e"></path><path d="M0 417L121 518L134 428Z" fill="#283d80" stroke="#283d80"></path><path d="M134 428L121 518L183 469Z" fill="#304497" stroke="#304497"></path><path d="M103 112L79 235L230 204Z" fill="#304497" stroke="#304497"></path><path d="M115 312L0 417L134 428Z" fill="#5353cf" stroke="#5353cf"></path><path d="M824 600L900 600L802 513Z" fill="#434eb9" stroke="#434eb9"></path><path d="M279 0L185 0L162 74Z" fill="#21325e" stroke="#21325e"></path><path d="M162 74L103 112L230 204Z" fill="#253a75" stroke="#253a75"></path><path d="M94 0L103 112L162 74Z" fill="#2b418c" stroke="#2b418c"></path><path d="M900 96L900 0L799 125Z" fill="#4b50c4" stroke="#4b50c4"></path><path d="M0 518L98 600L121 518Z" fill="#2b418c" stroke="#2b418c"></path><path d="M121 518L98 600L225 600Z" fill="#304497" stroke="#304497"></path><path d="M0 210L0 306L79 235Z" fill="#304497" stroke="#304497"></path><path d="M79 235L0 306L115 312Z" fill="#4b50c4" stroke="#4b50c4"></path><path d="M0 306L0 417L115 312Z" fill="#434eb9" stroke="#434eb9"></path><path d="M103 112L0 210L79 235Z" fill="#434eb9" stroke="#434eb9"></path><path d="M0 73L0 210L103 112Z" fill="#283d80" stroke="#283d80"></path><path d="M185 0L94 0L162 74Z" fill="#2b418c" stroke="#2b418c"></path><path d="M0 417L0 518L121 518Z" fill="#233669" stroke="#233669"></path><path d="M94 0L0 73L103 112Z" fill="#283d80" stroke="#283d80"></path><path d="M0 518L0 600L98 600Z" fill="#4b50c4" stroke="#4b50c4"></path><path d="M94 0L0 0L0 73Z" fill="#304497" stroke="#304497"></path></g></svg>
